austria/municipalities/41004.svg

<?xml version="1.0" encoding="UTF-8"?>
<!DOCTYPE svg PUBLIC "-//W3C//DTD SVG 1.1//EN" "http://www.w3.org/Graphics/SVG/1.1/DTD/svg11.dtd">
<svg xmlns="http://www.w3.org/2000/svg" version="1.1" width="166px" height="207px" style="shape-rendering:geometricPrecision; text-rendering:geometricPrecision; image-rendering:optimizeQuality; fill-rule:evenodd; clip-rule:evenodd" xmlns:xlink="http://www.w3.org/1999/xlink">
<g><path style="opacity:1" fill="#000000" d="M -0.5,-0.5 C 54.8333,-0.5 110.167,-0.5 165.5,-0.5C 165.5,43.8333 165.5,88.1667 165.5,132.5C 159.762,165.428 141.429,188.595 110.5,202C 105.336,203.369 100.336,204.869 95.5,206.5C 86.8333,206.5 78.1667,206.5 69.5,206.5C 29.5404,196.538 6.20705,171.205 -0.5,130.5C -0.5,86.8333 -0.5,43.1667 -0.5,-0.5 Z"/></g>
<g><path style="opacity:1" fill="#cb0000" d="M 3.5,3.5 C 52.1678,3.33334 100.834,3.50001 149.5,4C 143.183,11.4727 138.017,19.6394 134,28.5C 130.831,32.6771 126.831,35.6771 122,37.5C 119.942,36.8883 118.109,35.8883 116.5,34.5C 113.528,36.3056 110.695,38.3056 108,40.5C 104.081,38.6382 100.081,36.9715 96,35.5C 94.3783,32.0131 93.545,28.3465 93.5,24.5C 86.4419,24.203 79.4419,24.5363 72.5,25.5C 71.5881,29.1333 70.9215,32.7999 70.5,36.5C 66.4333,37.1145 62.6,38.4478 59,40.5C 56.2615,38.0926 53.2615,36.0926 50,34.5C 44.4209,38.073 39.4209,42.4063 35,47.5C 35.8492,51.0675 37.6825,54.2342 40.5,57C 36.6663,62.6655 33.9996,68.8321 32.5,75.5C 29.0396,75.5254 25.7063,76.1921 22.5,77.5C 21.1667,84.1667 21.1667,90.8333 22.5,97.5C 25.7063,98.8079 29.0396,99.4746 32.5,99.5C 33.4203,103.93 34.7536,108.263 36.5,112.5C 34.7287,115.447 32.7287,118.281 30.5,121C 31.5,122.667 32.5,124.333 33.5,126C 28.5598,131.501 24.7265,137.667 22,144.5C 19.2706,148.898 15.6039,152.231 11,154.5C 9.5232,153.556 8.5232,152.223 8,150.5C 6.41299,145.232 5.07965,139.899 4,134.5C 3.50001,90.8346 3.33334,47.1679 3.5,3.5 Z"/></g>
<g><path style="opacity:1" fill="#fefffe" d="M 153.5,3.5 C 156.167,3.5 158.833,3.5 161.5,3.5C 161.665,6.8499 161.498,10.1832 161,13.5C 152.152,20.8544 145.485,29.8544 141,40.5C 134.586,44.9574 128.086,49.2907 121.5,53.5C 119.815,55.0175 118.315,56.6841 117,58.5C 113.963,65.1336 110.463,71.4669 106.5,77.5C 98.652,83.2586 90.9854,89.2586 83.5,95.5C 79.0584,101.986 74.8917,108.652 71,115.5C 63.7855,121.198 55.9522,126.031 47.5,130C 39.7266,136.775 33.8933,144.941 30,154.5C 25.8778,158.89 21.2112,162.557 16,165.5C 14.2467,162.995 12.7467,160.329 11.5,157.5C 20.8521,151.497 27.3521,143.164 31,132.5C 36.521,125.974 43.3543,121.474 51.5,119C 54.6301,116.872 57.4634,114.372 60,111.5C 65.5704,103.369 70.9037,95.036 76,86.5C 82.9787,81.5293 89.9787,76.5293 97,71.5C 101.128,63.7931 105.628,56.2931 110.5,49C 117.695,43.6389 125.028,38.4722 132.5,33.5C 137.598,26.97 141.931,19.97 145.5,12.5C 147.959,9.19841 150.625,6.19841 153.5,3.5 Z"/></g>
<g><path style="opacity:1" fill="#006632" d="M 67.5,144.5 C 68.1667,144.5 68.8333,144.5 69.5,144.5C 70.9616,145.458 72.2949,146.624 73.5,148C 82.6657,147.721 91.6657,147.388 100.5,147C 102.861,146.803 104.528,145.636 105.5,143.5C 112.655,142.924 118.322,139.758 122.5,134C 121.833,133.333 121.167,132.667 120.5,132C 128.683,130.492 132.85,125.658 133,117.5C 140.683,112.65 142.517,106.15 138.5,98C 143.172,94.9853 145.172,90.652 144.5,85C 143.536,72.2621 139.87,60.4288 133.5,49.5C 141.733,44.7542 147.233,37.7542 150,28.5C 152.98,24.3525 156.48,20.6859 160.5,17.5C 161.667,56.8291 161.833,96.1624 161,135.5C 153.033,170.8 131.533,192.967 96.5,202C 63.3927,206.257 37.0594,195.091 17.5,168.5C 21.7643,165.415 25.931,162.081 30,158.5C 34.9028,148.025 41.7361,139.025 50.5,131.5C 52.5,139.5 57.5,144.5 65.5,146.5C 66.7133,146.253 67.38,145.586 67.5,144.5 Z"/></g>
<g><path style="opacity:1" fill="#fe9900" d="M 78.5,26.5 C 82.8689,26.4672 87.2022,26.8005 91.5,27.5C 91.3133,31.4376 92.3133,34.9376 94.5,38C 99.2467,39.2484 103.747,41.0817 108,43.5C 110.695,41.3056 113.528,39.3056 116.5,37.5C 117.5,37.8333 118.167,38.5 118.5,39.5C 113.179,43.1549 108.513,47.4882 104.5,52.5C 86.4359,43.402 69.7692,45.402 54.5,58.5C 39.4466,76.649 38.78,95.3156 52.5,114.5C 46.9712,117.738 41.4712,121.071 36,124.5C 35.044,123.421 34.2106,122.255 33.5,121C 35.6944,118.305 37.6944,115.472 39.5,112.5C 37.0504,107.677 35.3837,102.677 34.5,97.5C 31.1667,97.1667 27.8333,96.8333 24.5,96.5C 23.1667,90.5 23.1667,84.5 24.5,78.5C 27.8333,78.1667 31.1667,77.8333 34.5,77.5C 35.9976,70.1833 38.6642,63.3499 42.5,57C 41.09,54.1816 39.4234,51.5149 37.5,49C 40.9384,44.366 45.105,40.5327 50,37.5C 52.9371,39.0496 55.7705,40.7163 58.5,42.5C 63.0243,40.5459 67.691,39.2126 72.5,38.5C 73.2436,34.8815 73.577,31.2148 73.5,27.5C 75.4147,27.7845 77.0813,27.4511 78.5,26.5 Z"/></g>
<g><path style="opacity:1" fill="#cb0000" d="M 75.5,49.5 C 85.4605,48.2829 94.7939,50.1163 103.5,55C 100.74,61.8603 96.7403,67.8603 91.5,73C 85.9956,76.2513 80.6622,79.7513 75.5,83.5C 70.4297,90.5716 65.763,97.9049 61.5,105.5C 59.5,108.167 57.1667,110.5 54.5,112.5C 42.6917,96.0578 42.525,79.3911 54,62.5C 60.0928,56.2099 67.2594,51.8766 75.5,49.5 Z"/></g>
<g><path style="opacity:1" fill="#fe9900" d="M 130.5,50.5 C 137.1,59.0393 140.934,68.706 142,79.5C 141,78.8333 140,78.1667 139,77.5C 137.139,68.3999 133.639,60.0665 128.5,52.5C 129.243,51.8182 129.909,51.1515 130.5,50.5 Z"/></g>
<g><path style="opacity:1" fill="#fe9900" d="M 124.5,53.5 C 125.675,53.281 126.675,53.6143 127.5,54.5C 129.756,57.9511 131.423,61.6178 132.5,65.5C 131.178,65.67 130.011,65.3366 129,64.5C 127.197,60.918 125.697,57.2514 124.5,53.5 Z"/></g>
<g><path style="opacity:1" fill="#fe9900" d="M 121.5,56.5 C 124.303,59.4167 126.637,62.75 128.5,66.5C 127.137,67.8928 126.304,69.5595 126,71.5C 124.772,67.9413 123.106,64.608 121,61.5C 120.36,59.735 120.527,58.0683 121.5,56.5 Z"/></g>
<g><path style="opacity:1" fill="#fe9900" d="M 118.5,61.5 C 121.8,66.6027 124.467,72.1027 126.5,78C 124.976,79.1942 123.81,80.6942 123,82.5C 121.514,76.3683 119.347,70.535 116.5,65C 116.978,63.6974 117.645,62.5307 118.5,61.5 Z"/></g>
<g><path style="opacity:1" fill="#006632" d="M 114.5,67.5 C 116.782,70.729 118.615,74.3957 120,78.5C 120.659,84.2912 121.826,89.9579 123.5,95.5C 119.395,99.2358 117.395,103.902 117.5,109.5C 116.448,109.351 115.448,109.517 114.5,110C 112.629,112.37 110.962,114.87 109.5,117.5C 103.849,121.316 97.8486,124.482 91.5,127C 86.7968,126.817 82.1302,126.984 77.5,127.5C 73.8838,126.182 70.2171,124.849 66.5,123.5C 68.4904,121.344 70.6571,119.344 73,117.5C 76.6667,111.167 80.3333,104.833 84,98.5C 92.3333,91.8333 100.667,85.1667 109,78.5C 111.393,75.0478 113.226,71.3811 114.5,67.5 Z"/></g>
<g><path style="opacity:1" fill="#fd9800" d="M 135.5,80.5 C 134.118,81.8005 132.452,82.6339 130.5,83C 131,83.5 131.5,84 132,84.5C 132.667,88.1667 132.667,91.8333 132,95.5C 129.441,98.1235 127.108,97.7902 125,94.5C 123.126,90.4797 123.126,86.4797 125,82.5C 126.307,81.2283 127.807,80.2283 129.5,79.5C 127.897,76.6564 127.397,73.6564 128,70.5C 129.478,67.0069 131.478,66.6736 134,69.5C 135.337,73.0257 135.837,76.6924 135.5,80.5 Z"/></g>
<g><path style="opacity:1" fill="#fe9900" d="M 135.5,80.5 C 139.19,78.9862 141.357,80.3196 142,84.5C 143.119,88.9742 141.952,92.6409 138.5,95.5C 137.201,94.91 136.368,93.91 136,92.5C 135.627,90.3018 135.127,88.1351 134.5,86C 135.233,84.2341 135.567,82.4008 135.5,80.5 Z"/></g>
<g><path style="opacity:1" fill="#fe9900" d="M 134.5,95.5 C 135.478,95.811 136.145,96.4777 136.5,97.5C 134.157,99.3442 131.99,101.344 130,103.5C 127.888,100.715 128.722,99.0483 132.5,98.5C 133.193,97.4822 133.859,96.4822 134.5,95.5 Z"/></g>
<g><path style="opacity:1" fill="#fe9900" d="M 124.5,97.5 C 126.755,99.7586 127.755,102.592 127.5,106C 127.736,110.026 126.236,113.193 123,115.5C 118.215,109.226 118.715,103.226 124.5,97.5 Z"/></g>
<g><path style="opacity:1" fill="#fe9900" d="M 136.5,99.5 C 137.787,100.871 138.453,102.705 138.5,105C 138.831,110.855 136.165,114.355 130.5,115.5C 128.943,108.893 130.943,103.56 136.5,99.5 Z"/></g>
<g><path style="opacity:1" fill="#fe9900" d="M 115.5,111.5 C 116.5,111.5 117.5,111.5 118.5,111.5C 119.895,117.145 118.729,122.145 115,126.5C 111.651,121.442 111.818,116.442 115.5,111.5 Z"/></g>
<g><path style="opacity:1" fill="#fe9900" d="M 127.5,113.5 C 129.017,116.495 128.017,117.661 124.5,117C 125.71,115.961 126.71,114.794 127.5,113.5 Z"/></g>
<g><path style="opacity:1" fill="#fe9900" d="M 128.5,118.5 C 131.058,121.328 130.724,124.161 127.5,127C 116.044,131.176 114.377,129.176 122.5,121C 124.723,120.434 126.723,119.6 128.5,118.5 Z"/></g>
<g><path style="opacity:1" fill="#fe9900" d="M 107.5,119.5 C 108.5,119.5 109.5,119.5 110.5,119.5C 110.452,123.813 109.285,127.813 107,131.5C 104.683,134.097 101.85,134.93 98.5,134C 99.8343,131.34 100.668,128.506 101,125.5C 102.737,122.926 104.904,120.926 107.5,119.5 Z"/></g>
<g><path style="opacity:1" fill="#fe9900" d="M 62.5,125.5 C 66.9366,124.892 70.6033,126.225 73.5,129.5C 72.0897,131.955 69.9231,132.955 67,132.5C 62.7119,132.74 59.2119,131.24 56.5,128C 58.8516,127.76 60.8516,126.927 62.5,125.5 Z"/></g>
<g><path style="opacity:1" fill="#fe9900" d="M 96.5,125.5 C 98.8027,130.713 97.136,134.88 91.5,138C 89.272,138.82 87.272,138.487 85.5,137C 88.0237,131.978 91.6903,128.145 96.5,125.5 Z"/></g>
<g><path style="opacity:1" fill="#fe9900" d="M 111.5,125.5 C 112.249,126.531 112.915,127.698 113.5,129C 112.365,129.749 111.365,129.583 110.5,128.5C 111.127,127.583 111.461,126.583 111.5,125.5 Z"/></g>
<g><path style="opacity:1" fill="#fe9900" d="M 79.5,128.5 C 82.4005,128.28 85.0671,128.946 87.5,130.5C 83.6274,137.948 77.9607,139.948 70.5,136.5C 72.6034,132.725 75.6034,130.058 79.5,128.5 Z"/></g>
<g><path style="opacity:1" fill="#fe9900" d="M 53.5,129.5 C 57.2484,131.796 60.7484,134.463 64,137.5C 65.5576,139.769 65.7243,142.102 64.5,144.5C 57.0875,141.817 53.4208,136.817 53.5,129.5 Z"/></g>
<g><path style="opacity:1" fill="#fefffe" d="M -0.5,130.5 C 6.20705,171.205 29.5404,196.538 69.5,206.5C 46.1667,206.5 22.8333,206.5 -0.5,206.5C -0.5,181.167 -0.5,155.833 -0.5,130.5 Z"/></g>
<g><path style="opacity:1" fill="#fe9900" d="M 108.5,131.5 C 111.518,131.335 114.518,131.502 117.5,132C 118.428,132.388 119.095,133.055 119.5,134C 115.933,139.305 110.933,141.305 104.5,140C 101.695,137.315 102.362,135.648 106.5,135C 107.823,134.184 108.489,133.017 108.5,131.5 Z"/></g>
<g><path style="opacity:1" fill="#fefffe" d="M 165.5,132.5 C 165.5,157.167 165.5,181.833 165.5,206.5C 142.167,206.5 118.833,206.5 95.5,206.5C 100.336,204.869 105.336,203.369 110.5,202C 141.429,188.595 159.762,165.428 165.5,132.5 Z"/></g>
<g><path style="opacity:1" fill="#fe9900" d="M 64.5,135.5 C 65.6009,134.402 66.9343,134.235 68.5,135C 67.7734,136.399 67.2734,137.899 67,139.5C 66.3918,137.934 65.5585,136.6 64.5,135.5 Z"/></g>
<g><path style="opacity:1" fill="#fe9900" d="M 96.5,137.5 C 97.7082,136.218 99.0416,136.218 100.5,137.5C 99.3002,138.292 97.9669,138.292 96.5,137.5 Z"/></g>
<g><path style="opacity:1" fill="#fe9900" d="M 69.5,138.5 C 72.8663,140.164 76.533,140.997 80.5,141C 82.8333,142 84.5,143.667 85.5,146C 77.4708,148.676 72.1375,146.176 69.5,138.5 Z"/></g>
<g><path style="opacity:1" fill="#fe9900" d="M 81.5,138.5 C 82.9778,138.238 84.3112,138.571 85.5,139.5C 84.8333,139.833 84.1667,140.167 83.5,140.5C 82.2867,140.253 81.62,139.586 81.5,138.5 Z"/></g>
<g><path style="opacity:1" fill="#fe9900" d="M 91.5,139.5 C 94.5184,139.335 97.5184,139.502 100.5,140C 101.91,140.368 102.91,141.201 103.5,142.5C 97.8333,147.833 92.1667,147.833 86.5,142.5C 87.9469,141.065 89.6136,140.065 91.5,139.5 Z"/></g>
<g><path style="opacity:1" fill="#fe9900" d="M 69.5,144.5 C 68.8333,144.5 68.1667,144.5 67.5,144.5C 67.6051,139.34 68.2717,139.34 69.5,144.5 Z"/></g>
</svg>

<svg xmlns="http://www.w3.org/2000/svg" width="166" height="207" style="shape-rendering:geometricPrecision;text-rendering:geometricPrecision;image-rendering:optimizeQuality;fill-rule:evenodd;clip-rule:evenodd"><path style="opacity:1" d="M-.5-.5h166v133c-5.738 32.928-24.071 56.095-55 69.5a236.853 236.853 0 0 0-15 4.5h-26c-39.96-9.962-63.293-35.295-70-76V-.5z"/><path style="opacity:1" fill="#cb0000" d="M3.5 3.5c48.668-.167 97.334 0 146 .5A104.82 104.82 0 0 0 134 28.5c-3.169 4.177-7.169 7.177-12 9a14.757 14.757 0 0 1-5.5-3 75.676 75.676 0 0 0-8.5 6 133.386 133.386 0 0 0-12-5 26.532 26.532 0 0 1-2.5-11 116.724 116.724 0 0 0-21 1 84.363 84.363 0 0 0-2 11 32.983 32.983 0 0 0-11.5 4 40.468 40.468 0 0 0-9-6c-5.58 3.573-10.58 7.906-15 13 .85 3.568 2.682 6.734 5.5 9.5a53.785 53.785 0 0 0-8 18.5 26.76 26.76 0 0 0-10 2 50.501 50.501 0 0 0 0 20 26.76 26.76 0 0 0 10 2 73.022 73.022 0 0 0 4 13 71.521 71.521 0 0 1-6 8.5l3 5A61.712 61.712 0 0 0 22 144.5c-2.73 4.398-6.396 7.731-11 10-1.477-.944-2.477-2.277-3-4a173.132 173.132 0 0 1-4-16c-.5-43.665-.667-87.332-.5-131z"/><path style="opacity:1" fill="#fefffe" d="M153.5 3.5h8a50.464 50.464 0 0 1-.5 10c-8.848 7.354-15.515 16.354-20 27a606.614 606.614 0 0 1-19.5 13 31.867 31.867 0 0 0-4.5 5 142.888 142.888 0 0 1-10.5 19 471.113 471.113 0 0 0-23 18 281.837 281.837 0 0 0-12.5 20c-7.215 5.698-15.048 10.531-23.5 14.5-7.773 6.775-13.607 14.941-17.5 24.5a58.699 58.699 0 0 1-14 11 46.888 46.888 0 0 1-4.5-8c9.352-6.003 15.852-14.336 19.5-25 5.521-6.526 12.354-11.026 20.5-13.5a45.24 45.24 0 0 0 8.5-7.5 475.581 475.581 0 0 0 16-25c6.979-4.97 13.979-9.97 21-15A269.882 269.882 0 0 1 110.5 49a505.719 505.719 0 0 1 22-15.5 113.625 113.625 0 0 0 13-21 68.042 68.042 0 0 1 8-9z"/><path style="opacity:1" fill="#006632" d="M67.5 144.5h2a19.565 19.565 0 0 1 4 3.5c9.166-.279 18.166-.612 27-1 2.361-.197 4.028-1.364 5-3.5 7.155-.576 12.822-3.742 17-9.5l-2-2c8.183-1.508 12.35-6.342 12.5-14.5 7.683-4.85 9.517-11.35 5.5-19.5 4.672-3.015 6.672-7.348 6-13-.964-12.738-4.63-24.571-11-35.5 8.233-4.746 13.733-11.746 16.5-21a54.693 54.693 0 0 1 10.5-11c1.167 39.33 1.333 78.662.5 118-7.967 35.3-29.467 57.467-64.5 66.5-33.107 4.257-59.44-6.909-79-33.5a167.796 167.796 0 0 0 12.5-10c4.903-10.475 11.736-19.475 20.5-27 2 8 7 13 15 15 1.213-.247 1.88-.914 2-2z"/><path style="opacity:1" fill="#fe9900" d="M78.5 26.5c4.369-.033 8.702.3 13 1-.187 3.938.813 7.438 3 10.5a56.025 56.025 0 0 1 13.5 5.5 75.676 75.676 0 0 1 8.5-6c1 .333 1.667 1 2 2a64.92 64.92 0 0 0-14 13c-18.064-9.098-34.73-7.098-50 6-15.053 18.149-15.72 36.816-2 56a642.297 642.297 0 0 0-16.5 10 20.477 20.477 0 0 1-2.5-3.5 75.676 75.676 0 0 0 6-8.5c-2.45-4.823-4.116-9.823-5-15l-10-1c-1.333-6-1.333-12 0-18l10-1c1.498-7.317 4.164-14.15 8-20.5a49.87 49.87 0 0 0-5-8A44.832 44.832 0 0 1 50 37.5c2.937 1.55 5.77 3.216 8.5 5a55.796 55.796 0 0 1 14-4 49.391 49.391 0 0 0 1-11c1.915.285 3.581-.049 5-1z"/><path style="opacity:1" fill="#cb0000" d="M75.5 49.5c9.96-1.217 19.294.616 28 5.5-2.76 6.86-6.76 12.86-12 18a202.372 202.372 0 0 0-16 10.5 235.766 235.766 0 0 0-14 22c-2 2.667-4.333 5-7 7-11.808-16.442-11.975-33.109-.5-50 6.093-6.29 13.26-10.623 21.5-13z"/><path style="opacity:1" fill="#fe9900" d="M130.5 50.5c6.6 8.54 10.434 18.206 11.5 29l-3-2c-1.861-9.1-5.361-17.434-10.5-25a30.968 30.968 0 0 0 2-2zM124.5 53.5c1.175-.219 2.175.114 3 1 2.256 3.451 3.923 7.118 5 11-1.322.17-2.489-.163-3.5-1a75.446 75.446 0 0 1-4.5-11zM121.5 56.5c2.803 2.917 5.137 6.25 7 10-1.363 1.393-2.196 3.06-2.5 5a42.406 42.406 0 0 0-5-10c-.64-1.765-.473-3.432.5-5zM118.5 61.5c3.3 5.103 5.967 10.603 8 16.5-1.524 1.194-2.69 2.694-3.5 4.5a78.578 78.578 0 0 0-6.5-17.5 11.804 11.804 0 0 1 2-3.5z"/><path style="opacity:1" fill="#006632" d="M114.5 67.5c2.282 3.229 4.115 6.896 5.5 11a96.345 96.345 0 0 0 3.5 17c-4.105 3.736-6.105 8.402-6 14a4.934 4.934 0 0 0-3 .5 55.987 55.987 0 0 0-5 7.5 93.985 93.985 0 0 1-18 9.5 93.429 93.429 0 0 0-14 .5 8538.184 8538.184 0 0 0-11-4 55.779 55.779 0 0 1 6.5-6l11-19 25-20c2.393-3.452 4.226-7.119 5.5-11z"/><path style="opacity:1" fill="#fd9800" d="M135.5 80.5c-1.382 1.3-3.048 2.134-5 2.5l1.5 1.5a30.485 30.485 0 0 1 0 11c-2.559 2.624-4.892 2.29-7-1-1.874-4.02-1.874-8.02 0-12a14.759 14.759 0 0 1 4.5-3c-1.603-2.844-2.103-5.844-1.5-9 1.478-3.493 3.478-3.826 6-1 1.337 3.526 1.837 7.192 1.5 11z"/><path style="opacity:1" fill="#fe9900" d="M135.5 80.5c3.69-1.514 5.857-.18 6.5 4 1.119 4.474-.048 8.14-3.5 11-1.299-.59-2.132-1.59-2.5-3a56.733 56.733 0 0 0-1.5-6.5 12.993 12.993 0 0 0 1-5.5zM134.5 95.5c.978.311 1.645.978 2 2a55.756 55.756 0 0 0-6.5 6c-2.112-2.785-1.278-4.452 2.5-5a184.223 184.223 0 0 0 2-3zM124.5 97.5c2.255 2.259 3.255 5.092 3 8.5.236 4.026-1.264 7.193-4.5 9.5-4.785-6.274-4.285-12.274 1.5-18zM136.5 99.5c1.287 1.371 1.953 3.205 2 5.5.331 5.855-2.335 9.355-8 10.5-1.557-6.607.443-11.94 6-16zM115.5 111.5h3c1.395 5.645.229 10.645-3.5 15-3.349-5.058-3.182-10.058.5-15zM127.5 113.5c1.517 2.995.517 4.161-3 3.5a14.698 14.698 0 0 0 3-3.5zM128.5 118.5c2.558 2.828 2.224 5.661-1 8.5-11.456 4.176-13.123 2.176-5-6 2.223-.566 4.223-1.4 6-2.5zM107.5 119.5h3c-.048 4.313-1.215 8.313-3.5 12-2.317 2.597-5.15 3.43-8.5 2.5a24.902 24.902 0 0 0 2.5-8.5c1.737-2.574 3.904-4.574 6.5-6zM62.5 125.5c4.437-.608 8.103.725 11 4-1.41 2.455-3.577 3.455-6.5 3-4.288.24-7.788-1.26-10.5-4.5 2.352-.24 4.352-1.073 6-2.5zM96.5 125.5c2.303 5.213.636 9.38-5 12.5-2.228.82-4.228.487-6-1 2.524-5.022 6.19-8.855 11-11.5zM111.5 125.5a19.602 19.602 0 0 1 2 3.5c-1.135.749-2.135.583-3-.5a5.576 5.576 0 0 0 1-3zM79.5 128.5c2.9-.22 5.567.446 8 2-3.873 7.448-9.54 9.448-17 6 2.103-3.775 5.103-6.442 9-8zM53.5 129.5a65.392 65.392 0 0 1 10.5 8c1.558 2.269 1.724 4.602.5 7-7.413-2.683-11.08-7.683-11-15z"/><path style="opacity:1" fill="#fefffe" d="M-.5 130.5c6.707 40.705 30.04 66.038 70 76h-70v-76z"/><path style="opacity:1" fill="#fe9900" d="M108.5 131.5a40.914 40.914 0 0 1 9 .5c.928.388 1.595 1.055 2 2-3.567 5.305-8.567 7.305-15 6-2.805-2.685-2.138-4.352 2-5 1.323-.816 1.989-1.983 2-3.5z"/><path style="opacity:1" fill="#fefffe" d="M165.5 132.5v74h-70a236.853 236.853 0 0 1 15-4.5c30.929-13.405 49.262-36.572 55-69.5z"/><path style="opacity:1" fill="#fe9900" d="M64.5 135.5c1.1-1.098 2.434-1.265 4-.5a15.28 15.28 0 0 0-1.5 4.5c-.608-1.566-1.442-2.9-2.5-4zM96.5 137.5c1.208-1.282 2.542-1.282 4 0-1.2.792-2.533.792-4 0zM69.5 138.5c3.366 1.664 7.033 2.497 11 2.5 2.333 1 4 2.667 5 5-8.03 2.676-13.362.176-16-7.5zM81.5 138.5c1.478-.262 2.811.071 4 1l-2 1c-1.213-.247-1.88-.914-2-2zM91.5 139.5a40.911 40.911 0 0 1 9 .5c1.41.368 2.41 1.201 3 2.5-5.667 5.333-11.333 5.333-17 0 1.447-1.435 3.114-2.435 5-3zM69.5 144.5h-2c.105-5.16.772-5.16 2 0z"/></svg>
